X: 12216
T: Fair And Forty
R: hornpipe
M: 4/4
K: Gmajor
|:GABc dGBd|efgf edcB|c2cA B2BG|ABAG FADF|
GABc dGBd|efgf edcB|ceAc (3Bcd GB|1 AGFA G2 (3DEF:|2 AGFA G3z||
|:~g3a bgdg|ed (3efg edBd|~g3a bgdg|edcB A2 (3Bcd|
~g3a bgdg|ed (3efg edBG|DGBd gdBG|DGFA G3z:|

